melody-of-light/img/icons/icomoon/hide-pass.svg

<svg width="18" height="18" viewBox="0 0 18 18" fill="none" xmlns="http://www.w3.org/2000/svg">
<path fill-rule="evenodd" clip-rule="evenodd" d="M8.99989 5C8.77383 5 8.54964 5.01855 8.32773 5.0535C8.05495 5.09647 7.79899 4.91016 7.75603 4.63738C7.71306 4.3646 7.89937 4.10864 8.17214 4.06568C8.44271 4.02306 8.71896 4 8.99989 4C10.5093 4 11.8803 4.66437 12.9856 5.45957C14.0948 6.25761 14.9794 7.21818 15.5269 7.88283C16.0663 8.53775 16.0663 9.46226 15.5269 10.1172C15.2823 10.4141 14.972 10.7681 14.6061 11.1394C14.4122 11.3361 14.0956 11.3384 13.899 11.1446C13.7023 10.9507 13.7 10.6342 13.8938 10.4375C14.2355 10.0908 14.5259 9.75951 14.755 9.4814C14.9902 9.19577 14.9902 8.80423 14.755 8.5186C14.2373 7.89014 13.4149 7.00035 12.4015 6.27131C11.3843 5.53943 10.2173 5 8.99989 5ZM5.78962 6.13717C4.68924 6.88802 3.79536 7.85016 3.24481 8.5186C3.00954 8.80423 3.00954 9.19577 3.24481 9.4814C3.76243 10.1099 4.58492 10.9996 5.59823 11.7287C6.6155 12.4606 7.78252 13 8.99989 13C10.0513 13 11.0661 12.5978 11.9824 12.0132L12.5202 12.8563C11.5076 13.5023 10.306 14 8.99989 14C7.49045 14 6.1195 13.3356 5.01422 12.5404C3.90499 11.7424 3.02037 10.7818 2.47292 10.1172C1.9335 9.46225 1.93351 8.53774 2.47292 7.88283C3.05406 7.17727 4.01676 6.13626 5.22598 5.31115L5.78962 6.13717Z" fill="#93939F"/>
<path fill-rule="evenodd" clip-rule="evenodd" d="M1.89645 1.89645C2.09171 1.70118 2.40829 1.70118 2.60355 1.89645L16.1036 15.3964C16.2988 15.5917 16.2988 15.9083 16.1036 16.1036C15.9083 16.2988 15.5917 16.2988 15.3964 16.1036L1.89645 2.60355C1.70118 2.40829 1.70118 2.09171 1.89645 1.89645Z" fill="#93939F"/>
<path fill-rule="evenodd" clip-rule="evenodd" d="M6.69689 9.09944C6.96362 9.02797 7.23779 9.18626 7.30926 9.45299C7.38877 9.74971 7.54498 10.0203 7.76219 10.2375C7.97941 10.4547 8.24997 10.6109 8.5467 10.6904C8.81343 10.7619 8.97172 11.0361 8.90025 11.3028C8.82878 11.5695 8.55461 11.7278 8.28788 11.6564C7.8216 11.5314 7.39642 11.2859 7.05509 10.9446C6.71375 10.6033 6.46827 10.1781 6.34333 9.71181C6.27186 9.44508 6.43015 9.17091 6.69689 9.09944Z" fill="#93939F"/>
</svg>

<svg width="18" height="18" fill="none" xmlns="http://www.w3.org/2000/svg"><path fill-rule="evenodd" clip-rule="evenodd" d="M9 5c-.226 0-.45.019-.672.053a.5.5 0 11-.156-.987C8.442 4.023 8.72 4 9 4c1.51 0 2.88.664 3.986 1.46 1.109.798 1.993 1.758 2.54 2.423.54.655.54 1.58 0 2.234-.244.297-.554.651-.92 1.022a.5.5 0 01-.712-.701c.341-.347.632-.678.861-.957a.745.745 0 000-.962C14.237 7.89 13.415 7 12.401 6.27 11.385 5.54 10.218 5 9 5zM5.79 6.137c-1.1.751-1.995 1.713-2.545 2.382a.745.745 0 000 .962c.517.629 1.34 1.519 2.353 2.248C6.616 12.46 7.783 13 9 13c1.051 0 2.066-.402 2.982-.987l.538.843C11.508 13.502 10.306 14 9 14c-1.51 0-2.88-.664-3.986-1.46-1.109-.798-1.994-1.758-2.541-2.423a1.745 1.745 0 010-2.234c.581-.706 1.544-1.747 2.753-2.572l.564.826z" fill="#93939F"/><path fill-rule="evenodd" clip-rule="evenodd" d="M1.896 1.896a.5.5 0 01.708 0l13.5 13.5a.5.5 0 01-.708.708l-13.5-13.5a.5.5 0 010-.708zM6.697 9.1a.5.5 0 01.612.353 1.75 1.75 0 001.238 1.237.5.5 0 01-.26.966 2.75 2.75 0 01-1.944-1.944.5.5 0 01.354-.613z" fill="#93939F"/></svg>
